src/main/resources/icons/XsltDebuggerIcons/icons/xmlComment.svg

<svg xmlns="http://www.w3.org/2000/svg" width="16" height="16" viewBox="0 0 16 16"><rect id="frame" width="16" height="16" fill="none"/><path fill="#7F8B91" fill-opacity=".9" fill-rule="evenodd" d="M5.995 10.953L.737 8.522V7.334l5.258-2.431v1.265L2.057 7.917l3.938 1.76v1.276zm2.277-1.595l-.418-4.873V4.1h1.562v.385l-.407 4.873h-.737zM7.909 11.8v-1.518h1.463V11.8H7.909zm3.003-2.717V7.774h3.256v1.309h-3.256z"/></svg>

<svg xmlns="http://www.w3.org/2000/svg" width="16" height="16" viewBox="0 0 16 16">
  <path fill="#7F8B91" fill-opacity=".9" fill-rule="evenodd" d="M5.995,10.953 L0.737,8.522 L0.737,7.334 L5.995,4.903 L5.995,6.168 L2.057,7.917 L5.995,9.677 L5.995,10.953 Z M8.272,9.358 L7.854,4.485 L7.854,4.1 L9.416,4.1 L9.416,4.485 L9.009,9.358 L8.272,9.358 Z M7.909,11.8 L7.909,10.282 L9.372,10.282 L9.372,11.8 L7.909,11.8 Z M10.912,9.083 L10.912,7.774 L14.168,7.774 L14.168,9.083 L10.912,9.083 Z"/>
</svg>
